X: 20962
M: 2/4
L: 1/16
K: F
V: 1 name="2"
c4 cfaf | c4 c2cA | B2BG A2AF | FGAB cdef |\
c4 cfaf | c4 c2cA | B2BG A2AF | F2A2F2 H|]


